icon-svg/aqara-h1-switch.svg

<svg xmlns="http://www.w3.org/2000/svg" fill="#44739e" viewBox="0 0 24 24"><path d="m18.686 2.412-1.04-.042.044 19.26.958-.066a.379.379 0 0 0 .352-.377V2.739a.327.327 0 0 0-.314-.327m-1.32.045-.741-.032a.4.4 0 0 0-.06 0l-5.778.364-.024 18.368 6.077.473h.016l.334-.021a.061.061 0 0 0 .058-.061l-.019-17.067h.216V2.539a.082.082 0 0 0-.079-.082M5 3.287v17.254a.159.159 0 0 0 .145.158l5.369.441V2.807l-5.42.379A.1.1 0 0 0 5 3.287"/></svg>

<?xml version="1.0" encoding="UTF-8"?>
<svg width="24px" fill="#44739e" height="24px" viewBox="0 0 24 24" version="1.1" xmlns="http://www.w3.org/2000/svg" xmlns:xlink="http://www.w3.org/1999/xlink">
            <path d="M 18.686,2.412 17.646,2.37 17.69,21.63 18.648,21.564 A 0.379,0.379 0 0 0 19,21.187 V 2.739 A 0.327,0.327 0 0 0 18.686,2.412 Z m -1.32,0.045 -0.741,-0.032 v 0 a 0.4,0.4 0 0 0 -0.06,0 l -5.778,0.364 -0.024,18.368 6.077,0.473 h 0.016 l 0.334,-0.021 a 0.061,0.061 0 0 0 0.058,-0.061 L 17.229,4.481 h 0.216 V 2.539 A 0.082,0.082 0 0 0 17.366,2.457 Z M 5,3.287 v 17.254 a 0.159,0.159 0 0 0 0.145,0.158 l 5.369,0.441 V 2.807 L 5.094,3.186 A 0.1,0.1 0 0 0 5,3.287 Z"/>

</svg>
